symbols/web/filter_6/materialsymbolsoutlined/filter_6_wght600gradN25fill1_40px.svg

<svg xmlns="http://www.w3.org/2000/svg" height="40" width="40"><path d="M21.042 25.167h4.208q1.292 0 2.104-.834.813-.833.813-2.125v-3.833q0-1.25-.813-2.104-.812-.854-2.104-.854h-4.208v-3.834h5.416V8.625h-5.416q-1.292 0-2.125.833-.834.834-.834 2.125v10.625q0 1.292.834 2.125.833.834 2.125.834Zm0-6.792h4.208v3.833h-4.208Zm-8.834 12.958q-1.458 0-2.5-1.041-1.041-1.042-1.041-2.5V6.042q0-1.459 1.041-2.5Q10.75 2.5 12.208 2.5h21.75q1.459 0 2.5 1.042 1.042 1.041 1.042 2.5v21.75q0 1.458-1.042 2.5-1.041 1.041-2.5 1.041ZM6.042 37.5q-1.459 0-2.5-1.042-1.042-1.041-1.042-2.5V8.667h3.542v25.291h25.291V37.5Z"/></svg>

<svg xmlns="http://www.w3.org/2000/svg" height="40" width="40"><path d="M21.042 15.417V11.583Q21.042 11.583 21.042 11.583Q21.042 11.583 21.042 11.583H26.458V8.625H21.042Q19.75 8.625 18.917 9.458Q18.083 10.292 18.083 11.583V22.208Q18.083 23.5 18.917 24.333Q19.75 25.167 21.042 25.167H25.25Q26.542 25.167 27.354 24.333Q28.167 23.5 28.167 22.208V18.375Q28.167 17.125 27.354 16.271Q26.542 15.417 25.25 15.417ZM21.042 18.375H25.25Q25.25 18.375 25.25 18.375Q25.25 18.375 25.25 18.375V22.208Q25.25 22.208 25.25 22.208Q25.25 22.208 25.25 22.208H21.042Q21.042 22.208 21.042 22.208Q21.042 22.208 21.042 22.208ZM12.208 31.333Q10.75 31.333 9.708 30.292Q8.667 29.25 8.667 27.792V6.042Q8.667 4.583 9.708 3.542Q10.75 2.5 12.208 2.5H33.958Q35.417 2.5 36.458 3.542Q37.5 4.583 37.5 6.042V27.792Q37.5 29.25 36.458 30.292Q35.417 31.333 33.958 31.333ZM6.042 37.5Q4.583 37.5 3.542 36.458Q2.5 35.417 2.5 33.958V8.667H6.042V33.958Q6.042 33.958 6.042 33.958Q6.042 33.958 6.042 33.958H31.333V37.5Z"/></svg>
